places/16/folder-windows.svg

<?xml version="1.0" encoding="UTF-8"?>
<svg id="a" width="16" height="16" version="1.1" xmlns="http://www.w3.org/2000/svg" xmlns:cc="http://creativecommons.org/ns#" xmlns:dc="http://purl.org/dc/elements/1.1/" xmlns:rdf="http://www.w3.org/1999/02/22-rdf-syntax-ns#">
	<metadata id="d">
		<rdf:RDF>
			<cc:Work rdf:about="">
				<dc:format>image/svg+xml</dc:format>
				<dc:type rdf:resource="http://purl.org/dc/dcmitype/StillImage"/>
				<dc:title/>
			</cc:Work>
		</rdf:RDF>
	</metadata>
	<defs>
		<style id="current-color-scheme" type="text/css">.ColorScheme-Text {color:#090d11;}.ColorScheme-Background{color:#ffffff;}</style>
	</defs>
	<path id="c" d="m14 1-6 1v5h6v-6zm-7 1.1562-5 0.84375v4h5v-4.8438zm-5 5.8438v4l5 1.25v-5.25h-5zm6 0v5.5l6 1.5v-7h-6z" style="fill:currentColor;fill-opacity:0.75;" class="ColorScheme-Text"/>
	<path id="b" d="m15-0.375-1.1875 0.1875-5.625 0.9375-0.375 0.0625-1 0.15625-5 0.84375-0.8125 0.15625v11l0.71875 0.1875 5 1.25 0.09375 0.03125 0.90625 0.21875 0.46875 0.125 5.5312 1.375 1.2812 0.3125v-16.844zm-1 1.375v6h-6v-5l6-1zm-7 1.1562v4.8438h-5v-4l5-0.84375zm-5 5.8438h5v5.25l-5-1.25v-4zm6 0h6v7l-6-1.5v-5.5z" style="fill:currentColor;fill-opacity:0.5;" class="ColorScheme-Background"/>
</svg>

<?xml version="1.0" encoding="UTF-8" standalone="no"?>
<!-- Created with Inkscape (http://www.inkscape.org/) -->

<svg
   xmlns:dc="http://purl.org/dc/elements/1.1/"
   xmlns:cc="http://creativecommons.org/ns#"
   xmlns:rdf="http://www.w3.org/1999/02/22-rdf-syntax-ns#"
   xmlns:svg="http://www.w3.org/2000/svg"
   xmlns="http://www.w3.org/2000/svg"
   xmlns:sodipodi="http://sodipodi.sourceforge.net/DTD/sodipodi-0.dtd"
   xmlns:inkscape="http://www.inkscape.org/namespaces/inkscape"
   id="svg13094"
   height="16"
   width="16"
   version="1.1"
   inkscape:version="0.48.3.1 r9886"
   sodipodi:docname="folder-windows.svg">
  <defs
     id="defs2989" />
  <sodipodi:namedview
     pagecolor="#ffffff"
     bordercolor="#666666"
     borderopacity="1"
     objecttolerance="10"
     gridtolerance="10"
     guidetolerance="10"
     inkscape:pageopacity="0"
     inkscape:pageshadow="2"
     inkscape:window-width="1920"
     inkscape:window-height="1023"
     id="namedview2987"
     showgrid="true"
     inkscape:zoom="41.7193"
     inkscape:cx="6.6139964"
     inkscape:cy="7.8140901"
     inkscape:window-x="-10"
     inkscape:window-y="35"
     inkscape:window-maximized="1"
     inkscape:current-layer="svg13094"
     inkscape:snap-bbox="true"
     inkscape:bbox-paths="true"
     inkscape:bbox-nodes="true"
     inkscape:snap-bbox-edge-midpoints="true"
     inkscape:snap-bbox-midpoints="true"
     inkscape:object-paths="true"
     inkscape:snap-intersection-paths="true"
     inkscape:object-nodes="true"
     inkscape:snap-smooth-nodes="true"
     inkscape:snap-midpoints="true"
     inkscape:snap-object-midpoints="true"
     inkscape:snap-center="true">
    <inkscape:grid
       type="xygrid"
       id="grid3750" />
  </sodipodi:namedview>
  <metadata
     id="metadata13099">
    <rdf:RDF>
      <cc:Work
         rdf:about="">
        <dc:format>image/svg+xml</dc:format>
        <dc:type
           rdf:resource="http://purl.org/dc/dcmitype/StillImage" />
        <dc:title />
      </cc:Work>
    </rdf:RDF>
  </metadata>
  <path
     id="path3033"
     d="M 14,1 8,2 8,7 14,7 14,1 z M 7,2.15625 2,3 2,7 7,7 7,2.15625 z M 2,8 2,12 7,13.25 7,8 2,8 z m 6,0 0,5.5 6,1.5 0,-7 -6,0 z"
     style="color:#000000;fill:#27303a;fill-opacity:0.753280819999999968;fill-rule:nonzero;stroke:none;stroke-width:2;marker:none;visibility:visible;display:inline;overflow:visible;enable-background:accumulate"
     inkscape:connector-curvature="0" />
  <path
     style="font-size:medium;font-style:normal;font-variant:normal;font-weight:normal;font-stretch:normal;text-indent:0;text-align:start;text-decoration:none;line-height:normal;letter-spacing:normal;word-spacing:normal;text-transform:none;direction:ltr;block-progression:tb;writing-mode:lr-tb;text-anchor:start;baseline-shift:baseline;color:#000000;fill:#f1f3f5;fill-opacity:0.90288714000000003;fill-rule:nonzero;stroke:none;stroke-width:2;marker:none;visibility:visible;display:inline;overflow:visible;enable-background:accumulate;font-family:Sans;-inkscape-font-specification:Sans"
     d="M 15 -0.375 L 13.8125 -0.1875 L 8.1875 0.75 L 7.8125 0.8125 L 6.8125 0.96875 L 1.8125 1.8125 L 1 1.96875 L 1 12.96875 L 1.71875 13.15625 L 6.71875 14.40625 L 6.8125 14.4375 L 7.71875 14.65625 L 8.1875 14.78125 L 13.71875 16.15625 L 15 16.46875 L 15 -0.375 z M 14 1 L 14 7 L 8 7 L 8 2 L 14 1 z M 7 2.15625 L 7 7 L 2 7 L 2 3 L 7 2.15625 z M 2 8 L 7 8 L 7 13.25 L 2 12 L 2 8 z M 8 8 L 14 8 L 14 15 L 8 13.5 L 8 8 z "
     id="path2997" />
</svg>
